!!!COM: Haydn, Franz Joseph
!!!OTL: String Quartet in G Major
!!!OPS: Opus 33
!!!ONM: No. 5
!!!OMD: Largo e cantabile
!!!OMV: 2
!!!SCT: H III:41
!!!SCA: Thematisch-bibliographisches Werkevererzeichnis (A. van Hoboken)
!!!YOR: Trautwein Edition
!!!ENC: Frances Bennion
!!!CDT: 1732/3/31/-1809/5/31/
!!!CNT: Oesterreich
!!!YEC: Copyright (c) 1994, 2000 Center for Computer Assisted Research in the Humanities
!!!YEM: Rights to all derivative editions reserved.
!!!YEM: Refer to licensing agreement for further details.
!!!YEN: United States of America
**kern	**kern	**kern	**kern
*k[b-e-]	*k[b-e-]	*k[b-e-]	*k[b-e-]
*g:	*g:	*g:	*g:
*clefF4	*clefC3	*clefG	*clefG
*M4/4	*M4/4	*M4/4	*M4/4
2.r	2.r	2.r	2.r
4r	4r	4r	4dd
=1	=1	=1	=1
4GG	8r	16G	4..gg
.	.	16B-	.
.	8g	16d	.
.	.	16B-	.
4r	8d	16g	.
.	.	16d	.
.	8b-	16B-	.
.	.	16d	16dd
4GG	8r	16G	4..bb-
.	.	16B-	.
.	8g	16d	.
.	.	16B-	.
4r	8d	16g	.
.	.	16d	.
.	8b-	16B-	.
.	.	16d	32aa
.	.	.	32gg
=2	=2	=2	=2
4D	8r	16A	8ff#
.	.	16c	.
.	8f#	16d	8r
.	.	16c	.
4r	8d	16f#	8aa
.	.	16d	.
.	8a	16c	4.r
.	.	16d	.
4D	8r	16A	.
.	.	16c	.
.	8f#	16d	.
.	.	16c	.
4r	8d	16f#	4dd
.	.	16d	.
.	8a	16c	.
.	.	16d	.
=3	=3	=3	=3
4D	8r	16A	4..aa
.	.	16c	.
.	8f#	16d	.
.	.	16c	.
4r	8d	16f#	.
.	.	16d	.
.	8cc	16c	.
.	.	16d	16dd
4D	8r	16A	4..ccc
.	.	16c	.
.	8f#	16d	.
.	.	16c	.
4r	8d	16f#	.
.	.	16d	.
.	8cc	16c	.
.	.	16d	32bb-
.	.	.	32aa
=4	=4	=4	=4
4G	8r	16G	8gg
.	.	16B-	.
.	8g	16d	8r
.	.	16B-	.
4r	8d	16g	8bb-
.	.	16d	.
.	8b-	16B-	4.r
.	.	16d	.
4G	8r	16G	.
.	.	16B-	.
.	8d	16d	.
.	.	16B-	.
4r	8B-	16g	4dd
.	.	16d	.
.	8g	16B-	.
.	.	16d	.
=5	=5	=5	=5
4BB-	8r	16d	4..ddd
.	.	16g	.
.	8d	16b-	.
.	.	16g	.
4r	8B-	16dd	.
.	.	16b-	.
.	8g	16g	.
.	.	16b-	48ccc
.	.	.	48bb-
.	.	.	48aa
4BB-	8r	16d	8bb-
.	.	16g	.
.	8d	16b-	8ff#
.	.	16g	.
4r	8B-	16dd	8gg
.	.	16b-	.
.	8g	16g	8dd
.	.	16b-	.
=6	=6	=6	=6
4C	8r	16e-	[3ee-
.	.	16g	.
.	8e-	16cc	.
.	.	16g	.
4r	8c	16e-	.
.	.	16a	.
.	.	.	96ee-]
.	.	.	32dd
.	8cc	16cc	32cc
.	.	.	32b-
.	.	16a	32a
.	.	.	32g
8D	8d	8f#	8f#
4.r	4.r	4.r	32bb-
.	.	.	32aa
.	.	.	16r
.	.	.	32gg
.	.	.	32ff#
.	.	.	16r
.	.	.	32ee-
.	.	.	32dd
.	.	.	16r
=7	=7	=7	=7
8GG	8r	8r	32cc
.	.	.	32b-
.	.	.	16r
8r	8d	8b-	32ff#
.	.	.	32gg
.	.	.	16r
8C	8r	8r	32dd
.	.	.	32ee-
.	.	.	16r
8r	8e-	8g	32b
.	.	.	32cc
.	.	.	16r
8D	8r	8r	4d
8r	8B-	8g	.
8D	8r	8r	8.a
8r	8c	8f#	.
.	.	.	16g
=8	=8	=8	=8
8GG	8B-	8g	8G
2..r	2..r	2..r	6..r
.	.	.	48r
.	.	.	32G
.	.	.	32A
.	.	.	8B-
.	.	.	16r
.	.	.	32B-
.	.	.	32c
.	.	.	8d
.	.	.	16r
.	.	.	32d
.	.	.	32B-
=9	=9	=9	=9
4..r	4..r	4..r	8G
.	.	.	3..r
32GG	32G	32G	.
32AA	32A	32A	.
8BB-	8B-	8B-	.
16r	16r	16r	.
32BB-	32B-	32B-	.
.	.	.	24r
32C	32c	32c	.
8D	8d	8d	4dd
16r	16r	16r	.
32D	32d	32d	.
32BB-	32B-	32B-	.
=10	=10	=10	=10
4GG	8G	16G	4..gg
.	.	16B-	.
.	8g	16d	.
.	.	16B-	.
4r	8d	16g	.
.	.	16d	.
.	8b-	16B-	.
.	.	16d	16dd
4GG	8r	16G	4..bb-
.	.	16B-	.
.	8g	16d	.
.	.	16B-	.
4r	8d	16g	.
.	.	16d	.
.	8b-	16B-	.
.	.	16d	48aa
.	.	.	48gg
.	.	.	48ff
=11	=11	=11	=11
4C	8r	16G	8ee
.	.	16B-	.
.	8e	16c	8r
.	.	16B-	.
4r	8c	16e	8gg
.	.	16c	.
.	8g	16B-	4.r
.	.	16c	.
4C	8r	16G	.
.	.	16B-	.
.	8e	16c	.
.	.	16B-	.
4r	8c	16e	4ee
.	.	16c	.
.	8g	16B-	.
.	.	16c	.
=12	=12	=12	=12
4F	8r	16A	4.ff
.	.	16c	.
.	8a	16e-	.
.	.	16c	.
4r	8f	16f	.
.	.	16e-	.
.	8cc	16c	8aa
.	.	16e-	.
4F	8r	16A	16.ccc
.	.	16c	.
.	.	.	32aa
.	8a	16e-	16.ddd
.	.	16c	.
.	.	.	32bb-
4r	8f	16f	8.eee-
.	.	16e-	.
.	8cc	16c	.
.	.	16e-	16ee-
=13	=13	=13	=13
4BB-	8r	16B-	4ee-
.	.	16f	.
.	8B-	16g	.
.	.	16f	.
4r	8d	16b-	4dd
.	.	16f	.
.	8B-	16d	.
.	.	16f	.
4BB-	8r	16B-	4r
.	.	16d	.
.	8B-	16f	.
.	.	16d	.
4r	8d	16b-	4ff
.	.	16f	.
.	8B-	16d	.
.	.	16f	.
=14	=14	=14	=14
4D	8r	16B-	4bb-
.	.	16d	.
.	8B-	16f	.
.	.	16d	.
4r	8f	16b-	2bb-
.	.	16f	.
.	8d	16d	.
.	.	16f	.
4D	8r	16B-	.
.	.	16d	.
.	8B-	16f	.
.	.	16d	.
4r	8d	16b-	4ff#
.	.	16d	.
.	8B-	16b-	.
.	.	16d	.
=15	=15	=15	=15
4E-	8r	16B-	4gg
.	.	16e-	.
.	8B-	16g	.
.	.	16e-	.
4r	8g	16b-	4.gg
.	.	16g	.
.	8e-	16e-	.
.	.	16g	.
4E-	8r	16B-	.
.	.	16e-	.
.	8B-	16g	8ff
.	.	16e-	.
4r	8g	16b-	8ee-
.	.	16g	.
.	8e-	16e-	8dd
.	.	16g	.
=16	=16	=16	=16
4E	8r	16c	8cc
.	.	16e	.
.	8B-	16g	16cc
.	.	16e	16dd
4r	8g	16b-	8ee
.	.	16g	.
.	8e	16e	16ee
.	.	16g	16ff
4E	8r	16c	8gg
.	.	16e	.
.	8B-	16g	16gg
.	.	16e	16aa
4r	8g	16g	8.bb-
.	.	16e	.
.	8e	16g	.
.	.	16e	16b-
=17	=17	=17	=17
4F	8r	16c	8a
.	.	16f	.
.	8c	16a	16g
.	.	16f	16f
4r	8a	16cc	4f
.	.	16a	.
.	8f	16f	.
.	.	16a	.
4F	8r	16c	2r
.	.	16f	.
.	8c	16a	.
.	.	16f	.
4r	8a	16cc	.
.	.	16a	.
.	8f	16f	.
.	.	16c	.
=18	=18	=18	=18
4F	8r	16A	4..ee-
.	.	16c	.
.	8A	16e-	.
.	.	16c	.
4r	8c	16f	.
.	.	16e-	.
.	8A	16c	.
.	.	16e-	48dd
.	.	.	48cc
.	.	.	48b-
4F	8r	16A	8a
.	.	16c	.
.	8A	16e-	8cc
.	.	16c	.
4r	8c	16f	8a
.	.	16e-	.
.	8A	16c	8f
.	.	16e-	.
=19	=19	=19	=19
4BB-	4F	16A	[6..e-
.	.	16c	.
.	.	16e-	.
.	.	16c	.
2.r	2.r	8B-	.
.	.	.	48e-]
.	.	.	16d
.	.	2r	16g
.	.	.	16f
.	.	.	16b-
.	.	.	16a
.	.	.	16ee-
.	.	.	16dd
.	.	.	16gg
.	.	.	16ff
.	.	8r	16aa
.	.	.	16bb-
=20	=20	=20	=20
4F	8r	16A	4..ee-
.	.	16c	.
.	8A	16e-	.
.	.	16c	.
4r	8c	16f	.
.	.	16e-	.
.	8A	16c	.
.	.	16e-	48dd
.	.	.	48cc
.	.	.	48b-
4F	8r	16A	8a
.	.	16c	.
.	8A	16e-	8cc
.	.	16c	.
4r	8c	16f	8a
.	.	16e-	.
.	8A	16c	8f
.	.	16e-	.
=21	=21	=21	=21
4BB-	4F	16A	4e-
.	.	16c	.
.	.	16e-	.
.	.	16c	.
2.r	2.r	8B-	24d
.	.	.	24e-
.	.	.	24f
.	.	2r	24g
.	.	.	24a
.	.	.	24b-
.	.	.	24cc
.	.	.	24dd
.	.	.	24ee-
.	.	.	24ff
.	.	.	24gg
.	.	.	24aa
.	.	.	8bb-
.	.	8r	16r
.	.	.	16ff#
=22	=22	=22	=22
4E-	8r	16B-	4gg
.	.	16e-	.
.	8B-	16g	.
.	.	16e-	.
4r	8g	16b-	4.eee-
.	.	16g	.
.	8e-	16e-	.
.	.	16g	.
4E-	8r	16B-	.
.	.	16e-	.
.	8B-	16g	8ddd
.	.	16e-	.
4r	8g	16b-	8ccc
.	.	16g	.
.	8e-	16e-	8bb-
.	.	16g	.
=23	=23	=23	=23
4F	8r	16c	8aa
.	.	16e-	.
.	8c	16f	8ggg
.	.	16e-	.
4r	8A	16a	2ggg
.	.	16e-	.
.	8c	16f	.
.	.	16e-	.
4AA	8r	16c	.
.	.	16e-	.
.	8c	16f	.
.	.	16e-	.
4r	8A	16cc	8fff
.	.	16e-	.
.	8c	16cc	8eee-
.	.	16e-	.
=24	=24	=24	=24
4BB-	8r	16d	16ddd
.	.	16f	16fff
.	8d	16g	16eee-
.	.	16f	16ddd
2r	8B-	16dd	4.bbb-
.	.	16b-	.
.	8d	16f	.
.	.	16b-	.
.	4r	8d	.
.	.	4.r	16d
.	.	.	16dd
4G-	[4B-	.	16e-
.	.	.	16ee-
.	.	.	16e
.	.	.	16ee
=25	=25	=25	=25
4F	4B-]	16d	4.ff
.	.	16f	.
.	.	16b-	.
.	.	16f	.
4r	4r	16d	.
.	.	16f	.
.	.	16b-	32ee-
.	.	.	32dd
.	.	16f	32cc
.	.	.	32b-
4F	4A	16c	2cc
.	.	16e-	.
.	.	16a	.
.	.	16e-	.
4r	4r	16c	.
.	.	16e-	.
.	.	16a	.
.	.	16e-	.
=26	=26	=26	=26
4B-	8r	16B-	1b-
.	.	16d	.
.	8B-	16f	.
.	.	16d	.
4r	8d	16b-	.
.	.	16f	.
.	8f	16d	.
.	.	16f	.
4B-	8r	16B-	.
.	.	16d	.
.	8B-	16f	.
.	.	16d	.
4r	8d	16b-	.
.	.	16f	.
.	8f	16d	.
.	.	16f	.
=27	=27	=27	=27
4G	8r	16d	[3..b
.	.	16f	.
.	8d	16g	.
.	.	16f	.
4r	8G	16b	.
.	.	16g	.
.	8g	16f	.
.	.	16g	.
4G	8r	16d	.
.	.	16f	.
.	.	.	24b]
.	8d	16g	8aa-
.	.	16f	.
4r	8G	16b	8gg
.	.	16g	.
.	8g	16f	8b
.	.	16g	.
=28	=28	=28	=28
4C	8r	16c	1cc
.	.	16e-	.
.	8e-	16g	.
.	.	16e-	.
4r	8c	16cc	.
.	.	16g	.
.	8g	16e-	.
.	.	16g	.
4C	8r	16c	.
.	.	16e-	.
.	8e-	16g	.
.	.	16e-	.
4r	8c	16cc	.
.	.	16g	.
.	8g	16e-	.
.	.	16g	.
=29	=29	=29	=29
4AA	8r	16e	1cc#
.	.	16g	.
.	8e	16a	.
.	.	16g	.
4r	8A	16cc#	.
.	.	16a	.
.	8a	16g	.
.	.	16a	.
4AA	8r	16e	.
.	.	16g	.
.	8e	16a	.
.	.	16g	.
4r	8A	16cc#	.
.	.	16g	.
.	8a	16a	.
.	.	16g	.
=30	=30	=30	=30
4D	8r	16d	2.dd
.	.	16f#	.
.	8d	16a	.
.	.	16f#	.
2.r	8f#	16dd	.
.	.	16a	.
.	8a	16f#	.
.	.	16a	.
.	4dd	16d	.
.	.	16e-	.
.	.	16c	.
.	.	16d	.
.	4r	16B-	4ff#
.	.	16c	.
.	.	16A	.
.	.	16B-	.
=31	=31	=31	=31
4GG	8r	16G	4..gg
.	.	16B-	.
.	8g	16d	.
.	.	16B-	.
4r	8d	16g	.
.	.	16d	.
.	8b-	16B-	.
.	.	16d	16dd
4GG	8r	16G	4..bb-
.	.	16B-	.
.	8g	16d	.
.	.	16B-	.
4r	8d	16g	.
.	.	16d	.
.	8b-	16B-	.
.	.	16d	32aa
.	.	.	32gg
=32	=32	=32	=32
4D	8r	16A	8ff#
.	.	16c	.
.	8f#	16d	8r
.	.	16c	.
4r	8d	16f#	8aa
.	.	16d	.
.	8a	16c	8r
.	.	16d	.
4D	8r	16A	16c#
.	.	16c	16d
.	8f#	16d	16f#
.	.	16c	16a
4r	8d	16f#	16cc#
.	.	16d	16dd
.	8a	16c	16gg
.	.	16d	16ff#
=33	=33	=33	=33
4D	8r	16A	8.aa
.	.	16c	.
.	8f#	16d	.
.	.	16c	16cc#
4r	8d	16f#	16dd
.	.	16d	16ee-
.	8cc	16c	16ee
.	.	16d	16ff
4D	8r	16A	16ff#
.	.	16c	16gg
.	8f#	16d	16aa
.	.	16c	16bb-
4r	8d	16f#	8ccc
.	.	16d	.
.	8cc	16c	16bb-
.	.	16d	16aa
=34	=34	=34	=34
4G	8r	16G	8gg
.	.	16B-	.
.	8g	16d	8r
.	.	16B-	.
4r	8d	16g	8bb-
.	.	16d	.
.	8b-	16B-	8r
.	.	16d	.
4G	8r	16G	16G
.	.	16B-	16B-
.	8d	16d	16d
.	.	16B-	16g
4r	8B-	16g	16b-
.	.	16d	16dd
.	8g	16B-	16gg
.	.	16d	16bb-
=35	=35	=35	=35
4BB-	8r	16G	4..ddd
.	.	16g	.
.	8d	16b-	.
.	.	16g	.
4r	8B-	16dd	.
.	.	16b-	.
.	8g	16g	.
.	.	16b-	48ccc
.	.	.	48bb-
.	.	.	48aa
4BB-	8r	16d	8.bb-
.	.	16g	.
.	8d	16b-	.
.	.	16g	48aa
.	.	.	48gg
.	.	.	48ff#
4r	8B-	16dd	8gg
.	.	16b-	.
.	8g	16g	16r
.	.	16b-	16dd
=36	=36	=36	=36
4C	8r	16e-	6..ee-
.	.	16b-	.
.	8e-	16dd	.
.	.	16b-	.
4r	8c	16e-	.
.	.	.	24dd
.	.	16a	.
.	.	.	24cc
.	8cc	16cc	24b-
.	.	.	24a
.	.	16a	.
.	.	.	24g
8D	8d	8f#	24f#
.	.	.	24ee-
.	.	.	24dd
4.r	4.r	4.r	24cc
.	.	.	24aa
.	.	.	24gg
.	.	.	24ff#
.	.	.	24ccc
.	.	.	24aa
.	.	.	24gg
.	.	.	24ff#
.	.	.	24ee-
=37	=37	=37	=37
8GG	8r	8r	24dd
.	.	.	24cc
.	.	.	24b-
8r	8d	8b-	24ff#
.	.	.	24gg
.	.	.	24dd
8C	8r	8r	24ff
.	.	.	24dd
.	.	.	24ee-
8r	8e-	8g	24dd
.	.	.	24b
.	.	.	24cc
8D	8r	8r	8.d
8r	8B-	8g	.
.	.	.	32g
.	.	.	32a
8D	8r	8r	8.a
8r	8c	8f#	.
.	.	.	16g
=38	=38	=38	=38
4E-	8B-	16B-	8G
.	.	16e-	.
.	8e-	16g	6..r
.	.	16e-	.
4r	8g	16b-	.
.	.	16g	.
.	8e-	16e-	.
.	.	.	48r
.	.	16g	32e-
.	.	.	32f
4E-	8r	16B-	8g
.	.	16e-	.
.	8e-	16g	16r
.	.	16e-	32g
.	.	.	32a-
4r	8g	16b-	8b-
.	.	16g	.
.	8e-	16e-	16r
.	.	16g	32b-
.	.	.	32g
=39	=39	=39	=39
4E-	8r	16B-	8e-
.	.	16e-	.
.	8e-	16g	6..r
.	.	16e-	.
4r	8g	16b-	.
.	.	16g	.
.	8e-	16e-	.
.	.	.	48r
.	.	16g	32b-
.	.	.	32g
4D	8r	16B-	8d
.	.	16d	.
.	8d	16g	6..r
.	.	16d	.
4r	8g	16b-	.
.	.	16g	.
.	8b-	16d	.
.	.	.	48r
.	.	16g	32b-
.	.	.	32g
=40	=40	=40	=40
4C#	8r	16B-	8c#
.	.	16g	.
.	8B-	16f#	6..r
.	.	16g	.
4r	8g	16b-	.
.	.	16g	.
.	8b-	16f#	.
.	.	.	48r
.	.	16g	32gg
.	.	.	32aa
8C#	8r	8G	8bb-
8CC#	8c#	8b-	8gg
8CC#	8c#	8b-	8gg
8CC#	8c#	8b-	8gg
=41	=41	=41	=41
2DD	2d	2b-	4..gg
.	.	.	16ff#
2r	2r	2r	16gg
.	.	.	16ff#
.	.	.	16gg
.	.	.	16ff#
.	.	.	16gg
.	.	.	16aa
.	.	.	16bb-
.	.	.	16dd
=42	=42	=42	=42
1r	2.r	2.r	16cc#
.	.	.	16bb-
.	.	.	16gg#
.	.	.	16aa
.	.	.	16ff#
.	.	.	16gg
.	.	.	16aa
.	.	.	16cc
.	.	.	16b-
.	.	.	16aa
.	.	.	16ff#
.	.	.	16gg
.	8d	8f	16b
.	.	.	16aa-
.	8r	8r	16ee
.	.	.	16ff
=43	=43	=43	=43
1r	8e-	8g	16cc
.	.	.	16gg
.	8r	8r	16dd
.	.	.	16ee-
.	8e	8g	16cc#
.	.	.	16bb-
.	8r	8r	16ff#
.	.	.	16gg
.	8f#	8a	16dd
.	.	.	16aa
.	4.r	4.r	16ee
.	.	.	16ff#
.	.	.	16a
.	.	.	16ccc
.	.	.	16aa
.	.	.	16ff#
=44	=44	=44	=44
4r	4r	4r	16ee-
.	.	.	16cc
.	.	.	16a
.	.	.	16f#
8F#	8A	8c	8e-
8F#	8A	8c	8e-
2F#	4.A	4.c	4.e-
.	8c	8e-	32d
.	.	.	32c
.	.	.	32B-
.	.	.	32A
=45	=45	=45	=45
2G	2B-	2d	16G
.	.	.	16d
.	.	.	16B-
.	.	.	16g
.	.	.	16d
.	.	.	16b-
.	.	.	16g
.	.	.	16gg
2E-	2G	2e-	16G
.	.	.	16e-
.	.	.	16B-
.	.	.	16g
.	.	.	16e-
.	.	.	16b-
.	.	.	16g
.	.	.	16gg
=46	=46	=46	=46
2C#	2B-	2g	16G
.	.	.	16c#
.	.	.	16e
.	.	.	16g
.	.	.	16b-
.	.	.	16cc#
.	.	.	16ee
.	.	.	16gg
8r	8r	8r	4..bb-
8c#	8e	8gg	.
8c#	8e	8gg	.
8c#	8e	8gg	.
.	.	.	32aa
.	.	.	32gg
=47	=47	=47	=47
4d	4d	4ff#	16ff#
.	.	.	16gg
.	.	.	16aa
.	.	.	16gg
4.r	4.r	4.r	16bb-
.	.	.	16aa
.	.	.	16ccc
.	.	.	16bb-
.	.	.	16ddd
.	.	.	16ccc
8c	8a	8ff#	16eee-
.	.	.	16ddd
8c	8a	8ff#	8eee-
8c	8a	8ff#	8eee-
=48	=48	=48	=48
2c	2a	2ff#	2eee-
8r	8r	8r	8r
8A	8cc	8ee-	8fff#
8A	8cc	8ee-	8fff#
8A	8cc	8ee-	8fff#
=49	=49	=49	=49
8B-	8b-	8dd	8ggg
8r	8r	8r	8r
8F#	8a	8dd	8aaa
8r	8r	8r	8r
8G	8g	8dd	8bbb-
4r	4r	4.r	4r
8C#	8c#	.	8c#
=50	=50	=50	=50
4D	8d	16B-	4.dd
.	.	16d	.
.	8D	16g	.
.	.	16d	.
4r	8G	16B-	.
.	.	16d	.
.	8B-	16g	32cc
.	.	.	32b-
.	.	16d	32a
.	.	.	32g
4D	8r	16A	4..a
.	.	16d	.
.	8D	16f#	.
.	.	16d	.
4r	8A	16A	.
.	.	16d	.
.	8c	16f#	.
.	.	16d	16g
=51	=51	=51	=51
8GG	8B-	8g	8G
2..r	2..r	2..r	6..r
.	.	.	48r
.	.	.	32G
.	.	.	32A
.	.	.	8B-
.	.	.	16r
.	.	.	32B-
.	.	.	32c
.	.	.	8d
.	.	.	16r
.	.	.	32d
.	.	.	32B-
=52	=52	=52	=52
4..r	4..r	4..r	8G
.	.	.	6..r
.	.	.	48r
32GG	32G	32G	32G
32AA	32A	32A	32A
8BB-	8B-	8B-	8B-
16r	16r	16r	16r
32BB-	32B-	32B-	32B-
32C	32c	32c	32c
8D	8d	8d	8d
16r	16r	16r	16r
32D	32d	32d	32d
32BB-	32B-	32B-	32B-
=53	=53	=53	=53
8GG	8G	8G	8G
8r	8r	8r	8r
8G	8g	8g	8g
8r	8r	8r	8r
4GG	4G	4G	4G
4r	4r	4r	4r
==	==	==	==
*-	*-	*-	*-
!!!RWG1: This file contains only pitch and duration data.
!!!RWG2: Transposing instruments are not transposed.
!!!RWG3: Spines may have incompatible meters.
!!!RWG4: Durations of rests and tied notes may be interpreted.
!!!RWG: Key is interpreted using the Humdrum key tool.
!!!GTL: 6 Quators ("Jungfernquartette")
!!!OPT: How do you do?
!!!AFT: stage1
!!!END: 1997/04/15
!!!KEY: 1421783539
!!!EMD: Converted from MuseData to Humdrum Dec 16, 2000, by Andreas Kornstaedt using muse2kern.
!!!EMD: Manual editing by Craig Sapp, Nov 2001
